X:1
T:17
L:1/8
M:3/4
K:Amin
V:1 treble nm="Piano" snm="Pno."
V:1
 c2 B2 A2 | B3 A E2 | A2 c2 B2 | A6 | A2 E2 G2 | A2 GF E2 | C3 D C2 | E6 | F3 G A2 | c2 B2 A2 | %10
 G3 F ED | E6 | B,2 C2 D2 | E2 A2 E2 | D3 E CB, | A,6 |] %16

